X:1
T: Lough Allen
C:
R:Reel
Q: 232
K:A
M:4/4
L:1/8
|:cd|eA cA BG Ed|eA cA d2 cd|eA cA BG EG|Ac BG A2 cd|
eA cA BG Ed|eA cA d2 cB|Ac Bd ce fa|ge dB A2 BA|
Be ef ge dB|ag ab a2 ba|ga ba ge dB|Ac BG A2 BA|
Be ef ge dB|ag ab a2 ba|ga ba ge dB|Ac BG A2:|
